X:162
T:AEROPLANE D'ACIGNE
Z: Yves BELOTTEAU
M:4/4
L:1/8
Q:1/4=120
K:G
|:D/2D/2D/2G/2BA GBD3/2 z/2 |E3/2 z/2 FE/2F/2 AAG3/2 z/2:|
d/2d/2d/2d/2Bd e/2d/2c/2B/2cA|c/2c/2c/2c/2AA/2c/2 edB3/2 z/2 |
d/2d/2d/2d/2Bd e/2d/2c/2B/2cA|ceA3/2c/2 edG3/2 z/2 |
B,/2B,/2B,/2D/2ED B,/2B,/2B,/2D/2ED|B,/2B,/2B,/2D/2ED CB,A,3/2 z/2 |
B,/2B,/2B,/2D/2ED B,/2B,/2B,/2D/2ED|A/2A/2A/2A/2F/2F/2F/2F/2 EFG3/2 z/2
|
B,DG3/2F/2 GFE3/2 z/2 |B,/2B,/2B,/2D/2ED B,/2B,/2B,/2D/2ED|
B,DG3/2F/2 GFE3/2 z/2 |A/2A/2A/2A/2F/2F/2F/2F/2 EFG3/2|
